svg/fluentui-system-icons/ic_fluent_drafts_16_regular.svg

<svg width="16" height="16" viewBox="0 0 16 16" fill="none" xmlns="http://www.w3.org/2000/svg">
<path d="M10.2695 2.00101C11.2927 0.974706 12.9546 0.973465 13.9794 1.99824C15.002 3.02084 15.0032 4.67843 13.9822 5.70256L6.51306 13.194C6.35563 13.3519 6.16496 13.4728 5.95494 13.5477L1.98601 14.964C1.38932 15.1769 0.813771 14.5999 1.02823 14.0037L2.45364 10.0414C2.52817 9.8342 2.64739 9.64597 2.80284 9.49005L10.2695 2.00101ZM13.2723 2.70534C12.6384 2.07151 11.6106 2.07228 10.9777 2.70706L10.1964 3.49067L12.4893 5.78356L13.274 4.99651C13.9055 4.36307 13.9048 3.33784 13.2723 2.70534ZM11.7832 6.49172L9.49036 4.19883L3.511 10.1961C3.45919 10.2481 3.41945 10.3108 3.3946 10.3799L2.14832 13.8443L5.61886 12.6059C5.68887 12.5809 5.75242 12.5406 5.8049 12.488L11.7832 6.49172ZM8.85744 2.00092H1.49959C1.22345 2.00092 0.999594 2.22477 0.999594 2.50092C0.999594 2.77706 1.22345 3.00092 1.49959 3.00092H7.86043L8.85744 2.00092ZM6.86341 4.00092H1.49959C1.22345 4.00092 0.999594 4.22477 0.999594 4.50092C0.999594 4.77706 1.22345 5.00092 1.49959 5.00092H5.8664L6.86341 4.00092ZM4.86939 6.00092H1.49959C1.22345 6.00092 0.999594 6.22477 0.999594 6.50092C0.999594 6.77706 1.22345 7.00092 1.49959 7.00092H3.87238L4.86939 6.00092Z" fill="#212121"/>
</svg>

<svg xmlns="http://www.w3.org/2000/svg" width="16" height="16"><path d="M10.27 2.001a2.621 2.621 0 0 1 3.712 3.702l-7.469 7.491a1.5 1.5 0 0 1-.558.354l-3.969 1.416a.75.75 0 0 1-.958-.96l1.426-3.963a1.5 1.5 0 0 1 .349-.551l7.467-7.489Zm3.002.704a1.621 1.621 0 0 0-2.294.002l-.782.784 2.293 2.293.785-.787a1.621 1.621 0 0 0-.002-2.292Zm-1.489 3.787L9.49 4.199l-5.979 5.997a.5.5 0 0 0-.116.184l-1.247 3.464 3.47-1.238a.5.5 0 0 0 .187-.118l5.978-5.996ZM8.857 2H1.5a.5.5 0 1 0 0 1h6.36l.997-1ZM6.863 4H1.5a.5.5 0 1 0 0 1h4.366l.997-1ZM4.87 6H1.5a.5.5 0 1 0 0 1h2.373l.997-1Z"/></svg>
